X:1
T:Suite XVII (Dresden 28) Allemande
T:SL Weiss (1687 - 1750)
T:Courante
T:Suite XVII - Sarabande
T:SL Weiss (1687-1750)
T:Bourée
T:SL Weiss
T:Tempo di Menueto
T:SL Weiss
T:Gigue
%%score ( 1 2 3 4 )
L:1/8
Q:1/4=48
M:4/4
K:G
V:1 treble-8 nm="Guitar"
V:2 treble-8 
V:3 treble-8 
V:4 treble-8 
V:1
"^Grave""^= F#" b | b>b c'>c' b>b a>b | [eg]3/2f/4g/4 eg fg/f/ ef/e/ | %3
 ^de/f/ B2 f/d/B/f/ f/d/A/f/ | G/e/F/f/ ge b/^g/e/b/ b/g/d/b/ | c/a/B/b/ c'b/a/ e/d/c/B/ A2 | %6
 c'2 c'2 c'2 z/ d/a/c'/ | b2 b2 b2 z/ c/g/b/ | a2 a2 a2 [cfa]2 | %9
 a/c/B/g/ A/f/B/g/ a/c/B/g/ A/f/B/g/ | [Acf]4 [Bdg]4 | gc'/a/ f>g [Bdg]3 :: ^g | %13
 ^g/e/e/g/ g/d/d/g/ a/c/c/a/ b/^G/G/b/ | c'c'/b/ a2 f/d/d/f/ f/c/c/f/ | %15
 g/B/B/g/ a/F/F/a/ bb/a/ g2 | z/ c'/g/e/ c/c'/g/b/ z/ ^a/f/^c/ ^A/a/f/a/ | %17
 z/ b/f/d/ B/b/f/a/ z/ f/g/f/ e/d/^c/B/ | [F^A]F/A/ ^c/A/c/e/ g2 g2 | %19
 g2 z/ ^c/f/e/ ^dB/c/ d/e/f/g/ | a2 a2 a2 z/ B/f/a/ | ^ge/^d/ e/f/g/a/ b/e/e/=d/ b/d/d/c/ | %22
 c/b/b/^g/ a/e/f/=g/ a/d/d/c/ a/c/c/B/ | B/a/g/f/ g/d/e/f/ g/c/c/B/ g/B/B/A/ | %24
 A/g/f/e/ f/B/^d/e/ f/B/B/A/ f/A/A/G/ | G/f/f/^d/ e2 z/ B/=d/e/ ^g/b/e/d/ | %26
 z/ c/b/^g/ a2 z2 !fermata![Fc^da]2 | aa/f/ gg/e/ ^d2 e2 | ef/^c/ ^d>e [EGBe]3 |] %29
[K:G][M:3/4][K:treble-8]"^= F#"[Q:1/4=152]"^Allegro" bab | ge^deBd | e3 ^def | gBfAeG | ^dF E3 e | %34
 f6 | z F GB ^DE | c3 c B2 | e3 e d2 | c3 c B2 | d3 A B2 | F3 F G2 | d3 A B2 | F3 F G2 | %43
 z G AF ED | B4 B2 | z B cA GF | d4 d2 | ^d B2 d^cd | e B2 e^de | f B2 fef | g B2 ge^c | f B2 fdB | %52
 e ^A2 e^cA | z ^AB^cdF | z Gd^c eB | z ^AB^c F2 | z FGE ^G2 | z ^GAE ^A2 | z ^ABF ^c2 | %59
 z ^cdB ^d2 | z ^deB ^e2 | z B^cf^Ae | z FB^d =dF | z E^A^c B^D | z =DFB ^C^A | z ^AB^cde | %66
 fb db ^c^a | bf db ^c^a | bf db ^c^a | [Bb]2 z :: fe f | dB^ABFA | B2 z bab | ge^deBd | e2 z ede | %75
 =cA^GAEG | A2 z ^GAB | cEF^GAB | cEF^GAB | cEFAdc | G B2 BAG | F A2 dcB | ce Ac BA | Bd Gd cB | %84
 ce Ac BA | Bd Gd cB | g3 g f2 | e3 e d2 | c3 c B2 | A3 A2 B | [DFc]6 | z BcA GF | z cdB AG | %93
 z dec BA | z efd cB | z fge dc | z cag fe | z Adc BA | G B2 GAF | z FGA BG | d A2 d^cd | %101
 ^d B2 d^cd | e B2 e^de | f B2 fef | g B2 gfe | ^g B2 gfg | a e2 a^ga | b e2 bab | c' e2 ^gab | %109
 c'a af fd | b3 fga | bg ge ec | a3 efg | af f^d dB | g3 Bcg | f3 ABf | e3 GAe | ^d2 B^c de | %118
 fb Bb ag | fa Ba gf | gb Bb ag | fa Ba gf | eg Bg fe | ^df Bf ed | ^ce ^Ae ^dc | ^df =A=c BA | %126
 z GBe F^d | z ^DEFGA | BeGeF^d | eB Ge F^d | eB Ge F^d | [Ee]2 z :| %132
[K:G][M:3/4][K:treble-8][Q:1/4=72]"^Adagio""^= F#" B4 e2 | e2 ^de f2 | f2 ef g2 | f4 f2 | f^d e4 | %137
 e^c ^d>f AB/F/ | GE =c4- | cB [EA]e A/G/F/G/ | FE Dd [FA][GB] | [GB][FA] [FA][ce] [ce][Bd] | %142
 [Bd]c/B/ [Ac][ca] [ca][Bg] | [Bg][Af] [Af][Ge] [Ge][Fd] | [GA^c]6 | [EG^ce]2 cB AG | FA- A3 d/F/ | %147
 G4- Gd/F/ | G4 GF | G/D/B,/D/ G,4 :: d4 g2 | g2 fe f/g/g | a3 agf | g2 g f2 e | eg fe de/^c/ | %155
 df/^A/ Bd/F/ GB/^D/ | z Ged ^cB | ^A4 B2 | fe/d/ ^cd/e/ dc/B/ | ^A4 [FB]2 | ^cF fe ^de/c/ | %161
 ^d4 e2 | ba/g/ fg/a/ gf/e/ | [B^d]4 [Be]2 | z fBA GF | fE GB fe | [Ae]2 ^de f2 | f2 ef g2 | %168
 g2 fg a2 | a3 agf | g3 gfe | ^df Bb ba | a3 a ag | g3 g gf | f3 B BA | A3 AAG | G3 GGF | %177
 FBA^d f2 | e2 ^d3 e | G,/E/B/d/4e/4 !fermata!b3 e | c'b ac'/e/ fa/^c/ | A,/F/B/^d/4f/4 b4 | %182
 b e2 f F^d | e/B/G/B/ E4 |][K:G][M:4/4][K:treble-8][Q:1/4=160]"^Allegro" e2 | b2 b2 b2 b2 | %186
 a2 ga f2 b2 | g2 fg e2 g2 | f2 c2 B2 gf | e2 B2 A2 f2 | [F^d]4 B^cde | f2 ^d2 c2 B2 | %192
 f2 ^d2 B2 A2 | f2 ^d2 A2 BF | G2 F2 Ee^ga | b2 ^g2 =f2 e2 | b2 ^g2 e2 d2 | b2 ^g2 d2 eB | %198
 c2 B2 A2 fg | a2 f2 e2 d2 | a2 f2 e2 d2 | a2 f2 c2 BA | B2 A2 G2 d2 | g2 g2 g2 g2 | g2 f2 e2 g2 | %205
 f2 f2 f2 f2 | f2 e2 ^d2 f2 | e2 e2 e2 e2 | e2 d2 ^c2 e2 | d2 F2 ^c2 F2 | B2 F2 E2 ^c2 | %211
 ^A4 F2 f2 | g2 e2 f2 d2 | e2 de ^c2 de | f2 B2 e2 ^c2 | d2 ^cd B2 d2 | d2 ^c2 e2 B2 | %217
 ^A2 E2 B2 D2 | ^C2 B4 [C^A]2 | [DB]6 :: B2 | f2 f2 f2 e2 | ^d4 d4 | e4 f4 | g2 f2 e2 e2 | %225
 b2 b2 b2 a2 | ^g4 g4 | a4 b4 | c'2 b2 a2 e2 | a2 a2 a2 =g2 | f4 f4 | g4 a4 | b2 a2 g2 d2 | %233
 g2 g2 g2 G2 | =f2 f2 f2 ed | e6 e2 | a2 a2 a2 A2 | g2 g2 g2 fe | f6 f2 | b2 b2 b2 B2 | %240
 a2 a2 a2 gf | g6 B2 | e4 e4 | d2 d2 d2 cB | c6 e2 | [ca]6 [Bg]2 | [Af]6 [Ge]2 | [F^d]4 B^cde | %248
 f2 ^d2 c2 B2 | f2 ^d2 B2 A2 | f2 ^d2 A2 BF | G2 F2 Ee^ga | b2 ^g2 =f2 e2 | b2 ^g2 e2 d2 | %254
 b2 ^g2 d2 eB | c2 B2 A2 ab | c'6 b2 | c'6 b2 | a6 g2 | a6 g2 | f6 e2 | ^d2 B2 e2 E2 | %262
 F2 e4 [F^d]2 | e6 :|[K:G][M:3/4][K:treble-8][Q:1/4=160]"^Tempo di menueto" e6- | e2 e2 ^d2 | %266
 eBGeF^d | z2 e2 ^d2 | e^degfe | ^de ^cd B2 | B^c^defg | agfe^d^c | Bc'bagf | gafg e2 | EF^GABc | %275
 dcBA^GF | E=fed cB | cd Bc A2 | AB^cdef | gfed^cB | Abag fe | fg ef d2 | dA fd af | c'b ag fe | %284
 dA fd af | c'b ag fe | d2 c'4 | b2 g2 a2 | a2 d4 | b2 g2 a2 | a2 gf ed | c2 a4 | B2 d2 g2 | %293
 A2 g2 f2 | Bg ca Af | Bg ac Af | BgcaAf | [Bg]6 :: g6- | g2 g2 f2 | gdBgAf | z2 g2 f2 | gfge ag | %303
 fg ef d2 | a6- | a2 a2 ^g2 | aecaB^g | z2 a2 ^g2 | a=g af ba | ga fg e2 | b6- | b2 b2 ^a2 | %312
 bfdb^c^a | z2 b2 ^a2 | z bba gf | gf ed ^cB | ^AB^GA F2 | F^G^AB^cd | ed^cB^A^G | Fgfed^c | %320
 de ^cd B2 | B^c^defg | agfe^d^c | B=c'bagf | ga fg e2 | eB ^ge bg | d'c' ba ^gf | eB ^ge bg | %328
 d'c' ba ^gf | e2 d'4 | e2 a2 c'2 | d2 [ac']4 | d2 g2 b2 | c2 [gb]4 | c2 f2 a2 | B2 [fa]4 | %336
 Bg Af Ge | ^de ^cd B2 | BF ^dB fd | ag fe ^d^c | BF ^dB fd | ag fe ^d^c | B2 a4 | B2 e2 g2 | %344
 c2 g2 f2 | B2 f2 e2 | GeAf B^d | eB GB E2 |] %348
[K:G][M:6/8][K:treble-8][Q:3/8=108]"^Allegro""^=F#" z | z6 | z6 | eee eee | efg fge | ^dBd fdf | %354
 bbb bbb | bc'a gaf | gfe ac'e | fed gbd | efg aeg | f>ge d2 d | gdg BdF | GBD gfg | afa dfA | %363
 FAD aga | z db a2 g | fga d2 d | c'a/b/c' c'fa | af/g/a adf | c'a/b/c' c'fa | af/g/a adb | %370
 ge/f/g gca | a/g/f/g/e/f/ d2 d | dBF GBD | gdc BAG | dBF GBD | gdc BAG | eFG Dgf | gdB GDA, | %378
 B,DG A,GF | GDB, G,gA, | B,DG A,GF | GDB, G,2 :: G | GDG BGB | dBd gdg | [Af]3 d3 | f6 | %387
 [Bf]3 B3 | ^d3 fga | geB GEB, | ge/f/g g^ce | fd/e/f fBd | e^c/d/e e^Ac | dB/^c/d dcB | %394
 ^A^cf F2 F | GE/F/G BA^G | ^GE/F/G eBG | AE/^G/A ^cB^A | ^AF/^G/A f^cA | BF/^A/B d^cB | %400
 ^c^A/B/c Ffc | d^cB (=cB)^A | BFB dBd | fdB cB^A | BFB dBd | fed ^cdB | ^AB^G FGE | DFB ^CB^A | %408
 BFD B,2 B/^c/ | dB/^c/d dB/c/d | dBd =fed | b^g/a/b bde | cAe E,A^G | AEC A,2 A/B/ | %414
 cA/B/c cA/B/c | cAc edc | af/g/a c2 d | BGd Dgf | gdB G2 D | GDG BGB | dBd gdg | [Af]3 d3 | f6 | %423
 [Bf]3 B3 | ^d3 fga | geB GEB, | z gB cag | fdA FDA, | z fA Bgf | z eB Afe | ^def B2 B | %431
 c'a/b/c' c'fa | af/g/a a^df | c'a/b/c' c'fa | af/g/a a^db | gfe Fe^d | e^c^G ^AcF | e^c^G ^AcF | %438
 ^A^ce gfe | ^d2 e Fed | eBB BBB | BcA GAF | E6- | E6 | eBG E2 z |] %445
V:2
 x | E,4 E,4 | E,3 E D2 C2 | B,3 B, z B2 A | GF [EB]2 z e2 x | cB A,4 z A, | %6
 z/ e/e/d/ z/ c/c/B/ z/ A/A/G/ F2 | z/ d/d/c/ z/ B/B/A/ z/ G/G/F/ E,2 | %8
 z/ c/c/B/ z/ A/A/G/ z/ F/F/E/ D2 | D4 D4 | D4 B,4 | A,2 A,2 G3 :: x | E,4 E,4 | A,4 D4 | %15
 D4 [Gd]4 | E,4 E,4 | D4 E4 | E,4 z/ G/G/F/ z/ E/E/D/ | z/ ^C/E/G/ ^A,2 B,4 | %20
 z/ c/c/B/ z/ A/A/G/ z/ F/A/c/ ^D2 | E,4 ^G2 E2 | A,4 F2 D2 | G4 A,4 | D4 ^D4 | E,3 E ^G,4 | %26
 A,2- A,/F,/A,/C/ !fermata!^D4 | ^D2 E2 B,4 | [B,FA]4 E,2 x |][K:G][M:3/4][K:treble-8] z z2 | z6 | %31
 G2 E,4 | z6 | z6 | z ^D BAGF | E,6 | z E E3 D | z C C3 B, | z A, A,3 G, | z F, F,3 G, | z D D3 E | %41
 z F, F,3 G, | z D D3 E, | F,6 | z G,F,G,- G,2 | A,6 | z B,A,B,- B,2 | z2 A,4 | z2 G,4 | z2 ^D4 | %50
 z2 E4 | z2 D4 | z2 ^C4 | B,6 | E,6 | F,6 | E,4- E,D | ^C4- CF | D4- D^A, | B,4- B,A, | %60
 ^G,4- G,=G, | F,6 | F,6 | F,6 | F,6 | B,6- | B,6- | B,6- | B,6- | B,2 B, :: z z2 | z6 | %72
 D2 B, z z2 | z6 | G2 E,4 | z6 | C2 A,4 | z6 | z6 | z6 | z2 ^C4 | D2 D4 | D6 | D6 | D6 | D6 | %86
 z B B3 A | z G G3 F | z E E3 D | z C C2 B,2 | A,6 | A,6 | B,6 | C6 | D6 | E,6 | F,6 | F6 | z2 D4 | %99
 G,6 | z2 F,4 | z2 A,4 | z2 G,4 | z2 ^D4 | z2 E4 | z2 D4 | z2 C4 | z2 ^G,4 | z2 A,4 | F6 | z G G4 | %111
 E,6 | z F F4 | ^D6 | z E E4 | z D D4 | z C C4 | B,6 | B,6 | B,6 | B,6 | B,6 | B,6 | B,6 | B,6 | %125
 B,6 | B,6 | E,4- x2 | E,4- x2 | E,6- | E,6- | E,2 E, :|[K:G][M:3/4][K:treble-8] E,2 E4 | %133
 F2 B,3 A, | G,4 E2 | E2 ^D2 B,2 | E,6 | B,6 | E,3 DEF | G2 ^C4 | D6 | D6 | D6 | D6 | E,3 E,F,G, | %145
 A,6 | D2 C4 | z B, C4 | z B, DA,- A,2 | z2 G,4 :: z2 G4 | z D- D4 | z E ^D4 | E2 B,4 | ^A,6 | %155
 B,6 | E4 [^E^G]2 | FE/D/ ^CD/E/ DC/B,/ | ^A,4 B,2 | FE/D/ ^CD/E/ DC/B,/ | ^A,6 | %161
 BA/G/ FG/A/ GF/E/ | ^D4 E2 | B,A,/G,/ F,G,/A,/ G,F,/E,/ | ^D6 | E,6 | FF, B,3 A, | G,4- G,E, | %168
 F,4 E,E | ^D6 | E,2 A,4 | B,6 | B,6 | B,6 | B,B B,4 | B,B, B,4 | B,B, B,4 | B,6- | B,2 B,4 | %179
 ^G,2 !fermata![^Gde]4 | A,6 | A,6 | G2 A,2 B,2 | E,6 |][K:G][M:4/4][K:treble-8] x2 | z4 z2 B2 | %186
 ^c4 ^d4 | E6 E2 | D8 | C8 | B,4 x4 | B,8 | B,8 | B,8 | E,4 z4 | E,8 | E,8 | E,8 | A,8 | F,8 | %200
 F,8 | F,8 | G,8 | z4 z2 [GB]2 | [^CA]8 | z2 [^DA]2 [DA]2 [DA]2 | [E,G]8 | %207
 z2 [E,G]2 [E,G]2 [E,G]2 | [^A,F]8 | B,4 A,4 | G,8 | F,8 | [E,B]4 [DB]4 | ^C8 | D4 ^C4 | [B,F]8 | %216
 [E,G]8 | F,4 D,4 | E,4 F,4 | B,4 B,2 :: x2 | z4 z2 F,2 | B,2 B,2 B,2 A,2 | G,4 F,4 | E,6 z2 | %225
 z4 z2 B2 | e2 e2 e2 d2 | c4 ^G4 | A,6 z2 | z4 z2 A2 | d2 d2 d2 c2 | B4 F4 | [Gd]4 z4 | z8 | %234
 z2 B,2 B,4 | z2 C2 C4 | z8 | z2 ^C2 C4 | z2 D2 D4 | z8 | z2 [^DB]2 [DB]4 | z2 E,2 E,4 | %242
 e2 e2 e2 E2 | z2 [^G,E]2 [G,E]4 | z2 A,2 A,4 | z2 A,2 A,4 | z2 A,2 A,4 | B,4 z4 | B,8 | B,8 | %250
 B,8 | E,4 x4 | E,8 | E,8 | E,8 | A,8 | A,8 | A,8 | A,8 | A,8 | A,8 | A,4 G,4 | A,4 B,4 | E,6 :| %264
[K:G][M:3/4][K:treble-8] z2 G2 F2 | E4 F2 | z6 | E4 F2 | G4 A2 | B,6 | z6 | z6 | z2 z2 B,2 | E,6 | %274
 z6 | z6 | ^G,4 E,2 | A,6 | z6 | z6 | ^C4 A,2 | D6 | D6- | D6 | F6- | F6 | F6 | G2 A2 B2 | F6 | %289
 G2 A2 B2 | F,6 | F,6 | G,6 | D6 | D6 | D6 | D4 z2 | G4 G,2 :: z2 B2 A2 | G4 A2 | z6 | G4 A2 | %302
 B4 c2 | D6 | z2 c2 B2 | A4 B2 | z6 | A4 B2 | ^c4 ^d2 | E,6 | z2 d2 ^c2 | B4 ^c2 | z6 | B4 ^c2 | %314
 d6 | E,6 | F,6 | z6 | z6 | ^A,4 F,2 | B,6 | z6 | z6 | z2 z2 B,2 | E,6 | E,6- | E,6 | ^G,6- | G,6 | %329
 ^G6 | A,6 | F6 | G6 | E,6 | F,6 | ^D6 | E,6 | [B,F]6 | B,6- | B,6 | ^D6- | D6 | ^D6 | E,6 | A,6 | %345
 G6 | G2 A2 B2 | E,6 |][K:G][M:6/8][K:treble-8] B | BBB BBB | BcA GAF | E3 F3 | G3 A3 | B,6 | %354
 B3 ^c3 | ^d6 | E6 | D6 | C3 ^C3 | D6 | B,6- | B,6 | F6 | z6 | G3 ^C3 | D6 | D6 | D6 | D6 | D6 | %370
 E6 | D6 | B,6- | B,6 | B,6- | B,6 | C3 D3 | z3 z2 A, | B,3 A,3 | x z2 G,2 A, | B,3 A,3 | %381
 z2 z G,2 :: z | z6 | z6 | DA,D FDF | AFA ABc | ^DB,D FDF | BFB ^d3 | E,6 | E,6 | D6 | ^C6 | %393
 B,3 [E,G]3 | F,6 | E,6 | D6 | ^C6 | F,6 | D6 | ^A,6 | [B,F]3 E3 | D6 | D3 E3 | D6 | D3 [E,G]3 | %406
 F,3 ^A,3 | B,3 F,3 | B,3- B,2 z | B,3 =A,3 | ^G,6 | ^G,6 | A,3 E,3 | A,3- A,2 z | A,3 G,3 | F,6 | %416
 F6 | G3 D3 | z2 z G2 z | z6 | z6 | DA,D FDF | AFA ABc | ^DB,D FDF | BFB ^d3 | E,6 | E,6 | D6 | %428
 D6 | C6 | B,6 | B,6 | B,6 | B,6 | B,6 | E,3 B,3 | ^C6 | ^C6 | ^C4 z2 | B,2 z B,3 | E,6- | E,6 | %442
 EB,B, B,B,B, | B,CA, G,A,F, | E,3- E,2 z |] %445
V:3
 x | ge ae ge f^d | B3 B cB BA | F4 x4 | x8 | x2 e2 x4 | x8 | x8 | x8 | x8 | x8 | c2 c2 x3 :: x | %13
 x8 | e4 x4 | x8 | x8 | x8 | x8 | x8 | x8 | x8 | x8 | x8 | x8 | x8 | x8 | B2 B2 BA/F/ GG/E/ | x7 |] %29
[K:G][M:3/4][K:treble-8] x3 | x6 | x6 | x6 | x6 | x6 | x6 | x6 | x6 | x6 | x6 | x6 | x6 | x6 | x6 | %44
 x6 | x6 | x6 | x6 | x6 | x6 | x6 | x6 | x6 | x6 | x6 | x6 | x6 | x6 | x6 | x6 | x6 | x6 | x6 | %63
 x6 | x6 | x6 | x6 | x6 | x6 | x3 :: x3 | x6 | x6 | x6 | x6 | x6 | x6 | x6 | x6 | x6 | x6 | x6 | %82
 x6 | x6 | x6 | x6 | D6- | D6 | D6- | D6 | x6 | x6 | x6 | x6 | x6 | x6 | x6 | x6 | x6 | x6 | x6 | %101
 x6 | x6 | x6 | x6 | x6 | x6 | x6 | x6 | x6 | x6 | x6 | x6 | x6 | x6 | x6 | x6 | x6 | x6 | x6 | %120
 x6 | x6 | x6 | x6 | x6 | x6 | x6 | x6 | x6 | x6 | x6 | x3 :|[K:G][M:3/4][K:treble-8] G6 | A4 B2 | %134
 B2 GF B2 | A2 Ac BA | G3 E GF/E/ | F2 B2 x2 | x6 | x6 | x6 | x6 | x6 | x6 | x6 | x6 | x6 | x6 | %148
 x6 | x6 :: x6 | A2 d2 z2 | c4 B2- | B4 G2 | F6 | F2 x4 | x6 | x6 | x6 | x6 | x6 | x6 | x6 | x6 | %164
 x6 | x6 | x6 | z G B4 | z F A4 | z c B4 | z B c4 | x4 gf | f4 fe | e4 e^d | ^d3 G GF | F3 FFE | %176
 E3 EE^D | ^D4- DF | GF/E/ F4 | x6 | e2 x4 | x6 | x6 | x6 |][K:G][M:4/4][K:treble-8] x2 | x8 | x8 | %187
 x8 | x8 | x8 | x8 | x8 | x8 | x8 | x8 | x8 | x8 | x8 | x8 | x8 | x8 | x8 | x8 | x8 | x8 | x8 | %206
 x8 | x8 | x8 | x8 | x8 | x8 | x8 | x8 | x8 | x8 | x8 | x8 | x8 | x6 :: x2 | z4 z2 ^A2 | B4 B4 | %223
 z2 B2 z2 B2 | B6 z2 | x8 | x8 | z2 e2 z2 e2 | e6 z2 | x8 | x8 | z2 d2 z2 d2 | x8 | x8 | z2 G2 G4 | %235
 x8 | x8 | z2 A2 A4 | x8 | x8 | x8 | x8 | x8 | x8 | x8 | x8 | x8 | x8 | x8 | x8 | x8 | x8 | x8 | %253
 x8 | x8 | x8 | z2 e2 d4 | z2 e2 d4 | z2 c2 B4 | z2 c2 B4 | z2 A2 G4 | x8 | x8 | G4 E2 :| %264
[K:G][M:3/4][K:treble-8] x6 | x6 | x6 | x6 | x6 | x6 | x6 | x6 | x6 | x6 | x6 | x6 | x6 | x6 | x6 | %279
 x6 | x6 | x6 | x6 | x6 | x6 | x6 | x6 | x6 | x6 | x6 | x6 | x6 | x6 | x6 | x6 | x6 | x6 | x6 :: %298
 x6 | x6 | x6 | x6 | x6 | x6 | x6 | x6 | x6 | x6 | x6 | x6 | x6 | x6 | x6 | x6 | x6 | x6 | x6 | %317
 x6 | x6 | x6 | x6 | x6 | x6 | x6 | x6 | x6 | x6 | x6 | x6 | x6 | x6 | x6 | x6 | x6 | x6 | x6 | %336
 x6 | x6 | x6 | x6 | x6 | x6 | x6 | x6 | x6 | x6 | x6 | x6 |][K:G][M:6/8][K:treble-8] x | x6 | x6 | %351
 x6 | x6 | x6 | x6 | x6 | x6 | x6 | x6 | x6 | x6 | x6 | x6 | x6 | x6 | x6 | x6 | x6 | x6 | x6 | %370
 x6 | x6 | x6 | x6 | x6 | x6 | x3 z A2 | x6 | x6 | x6 | x6 | x5 :: x | x6 | x6 | x6 | x6 | x6 | %388
 x6 | x6 | x6 | x6 | x6 | x6 | x6 | x6 | x6 | x6 | x6 | x6 | x6 | x6 | x6 | x6 | x6 | x6 | x6 | %407
 x6 | x6 | x6 | x6 | x6 | x3 z B,2 | x6 | x6 | x6 | x6 | x3 z A2 | x6 | x6 | x6 | x6 | x6 | x6 | %424
 x6 | x6 | x6 | x6 | x6 | x6 | x6 | x6 | x6 | x6 | x6 | x6 | x6 | x6 | x6 | z AG x3 | x6 | x6 | %442
 x6 | x6 | x6 |] %445
V:4
 x | x8 | x8 | x8 | x8 | x8 | x8 | x8 | x8 | x8 | x8 | x7 :: x | x8 | x8 | x8 | x8 | x8 | x8 | x8 | %20
 x8 | x8 | x8 | x8 | x8 | x8 | x8 | x8 | x7 |][K:G][M:3/4][K:treble-8] x3 | x6 | x6 | x6 | x6 | %34
 x6 | x6 | x6 | x6 | x6 | x6 | x6 | x6 | x6 | x6 | x6 | x6 | x6 | x6 | x6 | x6 | x6 | x6 | x6 | %53
 x6 | x6 | x6 | x6 | x6 | x6 | x6 | x6 | x6 | x6 | x6 | x6 | x6 | x6 | x6 | x6 | x3 :: x3 | x6 | %72
 x6 | x6 | x6 | x6 | x6 | x6 | x6 | x6 | x6 | x6 | x6 | x6 | x6 | x6 | x6 | x6 | x6 | x6 | x6 | %91
 x6 | x6 | x6 | x6 | x6 | x6 | x6 | x6 | x6 | x6 | x6 | x6 | x6 | x6 | x6 | x6 | x6 | x6 | x6 | %110
 x6 | x6 | x6 | x6 | x6 | x6 | x6 | x6 | x6 | x6 | x6 | x6 | x6 | x6 | x6 | x6 | x6 | x6 | x6 | %129
 x6 | x6 | x3 :|[K:G][M:3/4][K:treble-8] x6 | x6 | x6 | x6 | x6 | x6 | x6 | x6 | x6 | x6 | x6 | %143
 x6 | x6 | x6 | x6 | x6 | x6 | x6 :: x6 | x6 | x6 | x6 | x6 | x6 | x6 | x6 | x6 | x6 | x6 | x6 | %162
 x6 | x6 | x6 | x6 | x6 | x6 | x6 | x6 | x6 | x6 | z B B4 | z B B4 | x6 | x6 | x6 | x6 | x6 | x6 | %180
 x6 | x6 | x6 | x6 |][K:G][M:4/4][K:treble-8] x2 | x8 | x8 | x8 | x8 | x8 | x8 | x8 | x8 | x8 | %194
 x8 | x8 | x8 | x8 | x8 | x8 | x8 | x8 | x8 | x8 | x8 | x8 | x8 | x8 | x8 | x8 | x8 | x8 | x8 | %213
 x8 | x8 | x8 | x8 | x8 | x8 | x6 :: x2 | x8 | x8 | x8 | x8 | x8 | x8 | x8 | x8 | x8 | x8 | x8 | %232
 x8 | x8 | x8 | x8 | x8 | x8 | x8 | x8 | x8 | x8 | x8 | x8 | x8 | x8 | x8 | x8 | x8 | x8 | x8 | %251
 x8 | x8 | x8 | x8 | x8 | x8 | x8 | x8 | x8 | x8 | x8 | x8 | x6 :|[K:G][M:3/4][K:treble-8] x6 | %265
 x6 | x6 | x6 | x6 | x6 | x6 | x6 | x6 | x6 | x6 | x6 | x6 | x6 | x6 | x6 | x6 | x6 | x6 | x6 | %284
 x6 | x6 | x6 | x6 | x6 | x6 | x6 | x6 | x6 | x6 | x6 | x6 | x6 | x6 :: x6 | x6 | x6 | x6 | x6 | %303
 x6 | x6 | x6 | x6 | x6 | x6 | x6 | x6 | x6 | x6 | x6 | x6 | x6 | x6 | x6 | x6 | x6 | x6 | x6 | %322
 x6 | x6 | x6 | x6 | x6 | x6 | x6 | x6 | x6 | x6 | x6 | x6 | x6 | x6 | x6 | x6 | x6 | x6 | x6 | %341
 x6 | x6 | x6 | x6 | x6 | x6 | x6 |][K:G][M:6/8][K:treble-8] x | x6 | x6 | x6 | x6 | x6 | x6 | x6 | %356
 x6 | x6 | x6 | x6 | x6 | x6 | x6 | x6 | x6 | x6 | x6 | x6 | x6 | x6 | x6 | x6 | x6 | x6 | x6 | %375
 x6 | x6 | x6 | x6 | x6 | x6 | x5 :: x | x6 | x6 | x6 | x6 | x6 | x6 | x6 | x6 | x6 | x6 | x6 | %394
 x6 | x6 | x6 | x6 | x6 | x6 | x6 | x6 | x6 | x6 | x6 | x6 | x6 | x6 | x6 | x6 | x6 | x6 | x6 | %413
 x6 | x6 | x6 | x6 | x6 | x6 | x6 | x6 | x6 | x6 | x6 | x6 | x6 | x6 | x6 | x6 | x6 | x6 | x6 | %432
 x6 | x6 | x6 | x6 | x6 | x6 | x6 | x6 | x6 | x6 | x6 | x6 | x6 |] %445

